X: 37511
T: Slip Into Something Comfortable
R: slip jig
M: 9/8
K: Eminor
B|:b2e a2e g2e|fgf ede fgf|a2f g2f e2d|e2f g2f e2d|
b2e a2e g2e|fgf ede fgf|a2f g2f e2d|ez2 (e3e2)B:|
|:g2e a2e b2e|g2e a2e b2e|f2g f2e d2e|f2g a2g f2d|
g2e a2e b2e|g2e a2e b2e|fgf edB def|1 ez2 (e3e2)d:|2 ez2 e6||

